src/assets/images/icon5.svg

<svg width="70" height="70" viewBox="0 0 70 70" fill="none" xmlns="http://www.w3.org/2000/svg">
<path d="M25.9001 11.003C30.6229 5.29249 39.3771 5.29249 44.0999 11.003C45.9062 13.1869 48.4376 14.6484 51.2321 15.1207C58.5389 16.3555 62.916 23.9369 60.332 30.8822C59.3438 33.5385 59.3438 36.4615 60.332 39.1177C62.916 46.0631 58.5389 53.6445 51.2321 54.8793C48.4376 55.3516 45.9062 56.8131 44.0999 58.997C39.3771 64.7075 30.6229 64.7075 25.9001 58.997C24.0938 56.8131 21.5624 55.3516 18.7679 54.8793C11.4611 53.6445 7.08398 46.0631 9.66799 39.1177C10.6562 36.4615 10.6562 33.5385 9.66799 30.8822C7.08398 23.9369 11.4611 16.3555 18.7679 15.1207C21.5624 14.6484 24.0938 13.1869 25.9001 11.003Z" fill="url(#paint0_linear_1_987)"/>
<path d="M39.051 35.8321C39.1171 35.6295 39.2462 35.4532 39.4195 35.3291C39.5928 35.205 39.8012 35.1395 40.0143 35.1422C40.2275 35.1448 40.4342 35.2156 40.6043 35.344C40.7744 35.4724 40.899 35.6519 40.96 35.8561L41.697 37.3081C41.7687 37.4493 41.8729 37.5714 42.0011 37.6644C42.1292 37.7574 42.2776 37.8187 42.434 37.8431L44.068 38.0991C44.2784 38.1 44.4832 38.1671 44.6532 38.2911C44.8232 38.415 44.9498 38.5895 45.015 38.7896C45.0801 38.9896 45.0805 39.2051 45.016 39.4054C44.9516 39.6057 44.8256 39.7806 44.656 39.9051L43.484 41.0731C43.3718 41.1849 43.2877 41.3216 43.2387 41.4722C43.1897 41.6227 43.1771 41.7828 43.202 41.9391L43.461 43.5521C43.5323 43.7543 43.5367 43.974 43.4736 44.1789C43.4105 44.3838 43.2832 44.5629 43.1106 44.69C42.9379 44.817 42.729 44.8852 42.5146 44.8845C42.3003 44.8839 42.0918 44.8143 41.92 44.6861L40.455 43.9361C40.3139 43.8638 40.1576 43.8261 39.999 43.8261C39.8404 43.8261 39.6841 43.8638 39.543 43.9361L38.078 44.6861C37.9062 44.8132 37.6982 44.8819 37.4844 44.8822C37.2707 44.8824 37.0626 44.8142 36.8905 44.6875C36.7183 44.5608 36.5914 44.3823 36.5281 44.1781C36.4649 43.974 36.4687 43.755 36.539 43.5531L36.797 41.9401C36.8219 41.7838 36.8093 41.6237 36.7603 41.4732C36.7113 41.3226 36.6272 41.1859 36.515 41.0741L35.359 39.9211C35.1837 39.7997 35.0518 39.6253 34.9826 39.4235C34.9134 39.2217 34.9105 39.0031 34.9744 38.7996C35.0383 38.5961 35.1656 38.4183 35.3377 38.2923C35.5098 38.1663 35.7177 38.0986 35.931 38.0991L37.564 37.8431C37.7204 37.8187 37.8688 37.7574 37.9969 37.6644C38.1251 37.5714 38.2293 37.4493 38.301 37.3081L39.051 35.8321Z" stroke="white" stroke-width="2" stroke-linecap="round" stroke-linejoin="round"/>
<path d="M31 38.2163H30C28.9391 38.2163 27.9217 38.6377 27.1716 39.3879C26.4214 40.138 26 41.1554 26 42.2163V44.2163" stroke="white" stroke-width="2" stroke-linecap="round" stroke-linejoin="round"/>
<path d="M33 34.2163C35.2091 34.2163 37 32.4254 37 30.2163C37 28.0072 35.2091 26.2163 33 26.2163C30.7909 26.2163 29 28.0072 29 30.2163C29 32.4254 30.7909 34.2163 33 34.2163Z" stroke="white" stroke-width="2" stroke-linecap="round" stroke-linejoin="round"/>
<defs>
<linearGradient id="paint0_linear_1_987" x1="49" y1="11.5" x2="13.5" y2="60" gradientUnits="userSpaceOnUse">
<stop stop-color="#87C752"/>
<stop offset="1" stop-color="#4AB8D2"/>
</linearGradient>
</defs>
</svg>

<svg xmlns="http://www.w3.org/2000/svg" width="70" height="70" fill="none" viewBox="0 0 70 70"><path fill="url(#a)" d="M25.9 11.003c4.723-5.71 13.477-5.71 18.2 0a11.8 11.8 0 0 0 7.132 4.118c7.307 1.234 11.684 8.816 9.1 15.761a11.8 11.8 0 0 0 0 8.236c2.584 6.945-1.793 14.526-9.1 15.761a11.8 11.8 0 0 0-7.132 4.118c-4.723 5.71-13.477 5.71-18.2 0a11.8 11.8 0 0 0-7.132-4.118c-7.307-1.234-11.684-8.816-9.1-15.761a11.8 11.8 0 0 0 0-8.236c-2.584-6.945 1.793-14.527 9.1-15.761a11.8 11.8 0 0 0 7.132-4.118"/><path stroke="#fff" stroke-linecap="round" stroke-linejoin="round" stroke-width="2" d="M39.051 35.832a1 1 0 0 1 1.909.024l.737 1.452a1 1 0 0 0 .737.535l1.634.256a1 1 0 0 1 .588 1.806l-1.172 1.168a1 1 0 0 0-.282.866l.259 1.613a1 1 0 0 1-1.541 1.134l-1.465-.75a1 1 0 0 0-.912 0l-1.465.75a1 1 0 0 1-1.539-1.133l.258-1.613a1 1 0 0 0-.282-.866l-1.156-1.153a1 1 0 0 1 .572-1.822l1.633-.256a1 1 0 0 0 .737-.535zM31 38.216h-1a4 4 0 0 0-4 4v2m7-10a4 4 0 1 0 0-8 4 4 0 0 0 0 8"/><defs><linearGradient id="a" x1="49" x2="13.5" y1="11.5" y2="60" gradientUnits="userSpaceOnUse"><stop stop-color="#87c752"/><stop offset="1" stop-color="#4ab8d2"/></linearGradient></defs></svg>
